!!!COM: Schubert, Franz
!!!CNT: Deutscher
!!!TXO: Deutsch
!!!OTL: "Die Post"
!!!OPR: Winterreise
!!!LYR: Mu2ller, Wilhelm
!!!OPS: Opus 89
!!!ONM: No. 13
!!!ODT: 1827/
!!NB: Vocal melody only encoded.
**kern	**silbe
*clefG2	*
*k[b-e-a-]	*
*M6/8	*
*MM[geschwind]	*
=9	=9
4r	.
8r	.
8r	.
{8b-	{Von
8b-	der
=10	=10
4b-	Stra-
8b-	-sse
4g	her
8g	ein
=11	=11
4b-	Post-
8b-	-horn
4g}	klingt.}
8r	.
=12	=12
4r	.
8r	.
4r	.
{8g	{Was
=13	=13
4a-	hat
8e-	es,
8e-	dass
8a-	es
8cc	so
=14	=14
4ee-	hoch
8cc	auf-
4a-	-springt,
8a-	mein
=15	=15
[2.ff	Herz?
=16	=16
4ff]}	|}
8r	.
4r	.
8r	.
=18	=18
4r	.
8r	.
4r	.
{8ee-	{was
=19	=19
4ee-	hat
8b-	es,
8g	dass
8e-	es
8g	so
=20	=20
4cc	hoch
8b-	auf-
4.b-}	-springt,}
=21	=21
4r	.
8r	.
{(4dd-	{mein
8cc)	|
=22	=22
[2.cc	Herz,
=23	=23
(4cc]	|
8b-)	|
(4cc	mein
8ddn)	|
=24	=24
[2.ee-	Herz?
=25	=25
4ee-]}	|}
8r	.
4r	.
8r	.
=27	=27
4r	.
8r	.
4r	.
{8g-	{Die
=28	=28
4g-	Post
8r	.
4r	.
8g-	bringt
=29	=29
4g-	kei-
8g-	-nen
8g-	Brief
8a-	|
8b-	fu2r
=30	=30
4a-}	dich.}
8r	.
4r	.
{8a-	{Was
=31	=31
[4.a-	dra2ngst
8a-]	|
8b--	|
8a-	du
=32	=32
4a-	denn
8a-	so
8a-	wun-
8dd-	|
8cc-	-der
=33	=33
4b-}	lich}
8r	.
4r	.
{8dd-	{mein
=34	=34
[4.ee-	Herz,
4ee-]	|
8ccn	mein
=35	=35
[4.dd-	Herz?
4dd-]}	|}
8r	.
=37	=37
4r	.
8r	.
4r	.
{8b-	{die
=38	=38
4b-	Post
8cc-	bringt
4b-	kei-
8cc-	-nen
=39	=39
4b-	Brief
8ee-	fu2r
4b-	dich,
8ee-	mein
=40	=40
ddq	Herz,
([4.ff	|
8ff]	|
8ee-)	|
8dd	mein
=41	=41
(4.ee-	Herz,
4b-)}	|}
{8b-	{was
=42	=42
4b-	dra2ngst
8ccn	du
4b-	denn
8ccn	so
=43	=43
4b-	wun-
8ee-	-der-
4b-	-lich,
8ee-	mein
=44	=44
(2.ff	Herz,
=45	=45
[4.aa-	|
4aa-])	|
8dd	mein
=46	=46
[4.ee-	Herz?
8ee-]}	|}
8r	.
8r	.
=54	=54
4r	.
8r	.
4r	.
{8b-	{Nun
=55	=55
4b-	ja,
8b-	die
4g	Post
8g	kommt
=56	=56
4b-	aus
8b-	der
4g}	Stadt,}
8r	.
=57	=57
4r	.
8r	.
4r	.
{8g	{wo
=58	=58
4a-	ich
8e-	ein
8e-	lie-
8a-	|
8cc	-bes
=59	=59
4ee-	Lieb-
8cc	-chen
4a-	hatt',
8a-	mein
=60	=60
[2.ff	Herz!
=61	=61
4ff]}	|}
8r	.
4r	.
8r	.
=63	=63
4r	.
8r	.
4r	.
{8ee-	{wo
=64	=64
4ee-	ich
8b-	ein
8g	lie-
8e-	|
8g	-bes
=65	=65
4cc	Lieb-
8b-	-chen
4.b-}	hatt',}
=66	=66
4r	.
8r	.
{(4dd-	{mein
8cc)	|
=67	=67
[2.cc	Herz,
=68	=68
(4cc]	|
8b-)	|
(4cc	mein
8ddn)	|
=69	=69
[2.ee-	Herz!
=70	=70
4ee-]}	|}
8r	.
4r	.
8r	.
=72	=72
4r	.
8r	.
4r	.
{8g-	{Willst
=73	=73
[4.g-	wohl
4g-]	|
8g-	ein-
=74	=74
4g-	-mal
8g-	hin-
8g-	-u2-
8a-	|
8b-	-ber
=75	=75
4a-}	seh'n,}
8r	.
4r	.
{8a-	{und
=76	=76
[4.a-	fra-
8a-]	|
8b--	|
8a-	-gen,
=77	=77
4a-	wie
8a-	es
8a-	dort
8dd-	|
8cc-	mag
=78	=78
4b-}	geh'n,}
8r	.
4r	.
{8dd-	{mein
=79	=79
[4.ee-	Herz,
4ee-]	|
8ccn	mein
=80	=80
[4.dd-	Herz?
4dd-]}	|}
8r	.
=82	=82
4r	.
8r	.
4r	.
{8b-	{willst
=83	=83
4b-	wohl
8cc-	ein-
4b-	-mal
8cc-	hin-
=84	=84
4b-	-u2-
8ee-	-ber
4b-	seh'n,
8ee-	mein
=85	=85
ddq	Herz,
([4.ff	|
8ff]	|
8ee-)	|
8dd	mein
=86	=86
(4.ee-	Herz,
8b-)}	|}
8r	.
{8b-	{und
=87	=87
4b-	fra-
8cc	-gen,
4b-	wie
8cc	es
=88	=88
4b-	dort
8ee-	mag
4b-	geh'n,
8ee-	mein
=89	=89
(2.ff	Herz,
=90	=90
[4.aa-	|
4aa-])	|
8dd	mein
=91	=91
[2.ee-	Herz?
=92	=92
4ee-]}	|}
8r	.
4r	.
8r	.
*-	*-
